X:1
T:Title
%%score { ( 1 3 ) | ( 2 4 ) }
L:1/8
M:6/8
K:Bb
V:1 treble nm="Grand Piano"
V:3 treble 
V:2 bass 
V:4 bass 
V:1
 z3 z2[Q:1/4=83] [B,D]/[CE]/ | [DF][_D=E][=DF] [DB]2 [Dc] | [EB]3 [EA]2 C/D/ | EDE [EG][DF][CE] | %4
 [B,D]3- [B,D]2 [B,D]/[CE]/ | [DF][_D=E][=DF] [DB][EA][FB] | [Gc]3 [EG]2 [FG]/[FG]/ | %7
 [=Ec][Ed][Ec] GAB |[M:5/8] c-c- c3 |[M:1/8] F/F/ |[M:3/4] [Fd]>[Ec] [DB] [DF]2 [FB] | %11
[M:5/8] z [EG]- [EG]3 |[M:1/8] [=B,FG]/[B,FG]/ |[M:3/4] [=Ec]>[Ed] [Ec]G AB | c6 | %15
 [Ff]>[Ff] [Ff][Fd] [Fc][FB] | z [Ge]- [Ge]3 z | d>e dc GA |[M:5/8] B-B- B3 |] %19
V:2
 z3 z2 [B,,F,]/[B,,F,]/ | [B,,B,][B,,B,][B,,B,] [B,,F,]2 [B,,F,] | %2
 [C,F,]3 [C,F,]2 [E,F,]/[D,F,B,]/ | [C,F,A,][C,F,A,][C,F,A,] [F,,F,][G,,F,][A,,F,] | %4
 [B,,F,]3- [B,,F,]2 [B,,F,]/[B,,F,]/ | [B,,B,][B,,B,][B,,B,] [B,,F,][C,F,][D,B,] | %6
 [E,B,]3 [E,B,]2 [D,=B,]/[D,B,]/ | [C,C][C,C][C,C][K:treble] [B,C=E][A,CF][K:bass][G,CE] | %8
[M:5/8] [F,A,E]-[F,A,E]- [F,A,E]3 |[M:1/8] [F,A,E]/[F,A,E]/ | %10
[M:3/4] [B,,B,]>[B,,B,] [B,,B,] [B,,B,]2 [D,B,] |[M:5/8] [E,B,][E,B,]E, E,E, |[M:1/8] D,/D,/ | %13
[M:3/4] [C,C]>[C,C] [C,C][K:treble][B,C=E] [A,CF][K:bass][G,CE] | E6 | %15
 [D,B,]>[D,B,] [D,B,][B,,B,] [C,A,][D,B,] | [E,B,][E,B,] E,E, E,[E,B,]/[E,B,]/ | %17
 [F,B,F]>[F,A,F] [F,B,F][G,B,=E] [G,CE][F,C_E] |[M:5/8] z A,G, F,2 |] %19
V:3
 x6 | x6 | x6 | x6 | x6 | x6 | x6 | x6 |[M:5/8] x5 |[M:1/8] x |[M:3/4] x6 |[M:5/8] [FA] z B, B,B, | %12
[M:1/8] x |[M:3/4] x6 | z A, A, A,2 [Fd]/[Fe]/ | x6 | .[GB]2 B,B, B,[Ge]/[Ge]/ | x6 | %18
[M:5/8] [B,D]FE D2 |] %19
V:4
 x6 | x6 | x6 | x6 | x6 | x6 | x6 | x3[K:treble] x2[K:bass] x |[M:5/8] x5 |[M:1/8] x |[M:3/4] x6 | %11
[M:5/8] x5 |[M:1/8] x |[M:3/4] x3[K:treble] x2[K:bass] x | [F,A,]F, F, F,2 [B,,B,]/[C,A,]/ | x6 | %16
 x6 | x6 |[M:5/8] B,,-B,,- B,,3 |] %19

